icon-themes/sifr_svg/cmd/sc_grid.svg

<svg viewBox="0 0 16 16" xmlns="http://www.w3.org/2000/svg"><path d="m1 1v2h2v-2zm6 0v2h2v-2zm6 0v2h2v-2zm-12 6v2h2v-2zm6 0v2h2v-2zm6 0v2h2v-2zm-12 6v2h2v-2zm6 0v2h2v-2zm6 0v2h2v-2z" fill="#555753"/></svg>

<svg xmlns="http://www.w3.org/2000/svg" viewBox="0 0 16 16">
  <path
     style="fill:#555753"
     d="M 1 1 L 1 3 L 3 3 L 3 1 L 1 1 z M 7 1 L 7 3 L 9 3 L 9 1 L 7 1 z M 13 1 L 13 3 L 15 3 L 15 1 L 13 1 z M 1 7 L 1 9 L 3 9 L 3 7 L 1 7 z M 7 7 L 7 9 L 9 9 L 9 7 L 7 7 z M 13 7 L 13 9 L 15 9 L 15 7 L 13 7 z M 1 13 L 1 15 L 3 15 L 3 13 L 1 13 z M 7 13 L 7 15 L 9 15 L 9 13 L 7 13 z M 13 13 L 13 15 L 15 15 L 15 13 L 13 13 z "
     />
</svg>
